X:387
T: UND SO FINDEN WIR UNS WIEDER
N: F0691
O: Europa, Mitteleuropa, Deutschland
R: Geselligkeits  - Lied
M: 4/4
L: 1/8
K: A
CE | A3EB3E | c2A2
c3B | B2B2B2c^d | e4z2
EG | B3Ed3c | B2B2
f3e | eaceA2BA | A4z2

